icon/pk/blossom.svg

<svg viewBox="0 0 48 48" fill="none" xmlns="http://www.w3.org/2000/svg" height="1em" width="1em">
  <path d="M23.2663 6.00775C31 6.45947 31.2208 14.3708 30.285 17.623C39.6432 14.6492 43.2305 18.8621 43.8544 21.3403C44.9773 27.2874 39.3312 29.0839 36.3678 29.2387C42.357 36.6725 39.4872 40.3894 37.3036 41.3186C30.5657 43.1771 26.6977 38.3761 25.6059 35.7433C22.6112 42.062 17.4954 42.4027 15.3119 41.7832C8.94827 39.9248 11.7245 33.2654 13.9081 30.1679C4.92427 28.6812 3.61412 24.2829 4.08203 22.2696C5.57934 14.8358 13.4402 16.0745 17.1835 17.623C15.6862 7.95912 20.6148 5.85288 23.2663 6.00775Z" fill="#2F88FF" stroke="black" stroke-width="4" stroke-linecap="round" stroke-linejoin="round"/>
  <path d="M25 26L21 31" stroke="white" stroke-width="4" stroke-linecap="round" stroke-linejoin="round"/>
  <path d="M19 25L25 26" stroke="white" stroke-width="4" stroke-linecap="round" stroke-linejoin="round"/>
  <path d="M24 19L25 26" stroke="white" stroke-width="4" stroke-linecap="round" stroke-linejoin="round"/>
  <path d="M31 24L25 26" stroke="white" stroke-width="4" stroke-linecap="round" stroke-linejoin="round"/>
  <path d="M25 26L30 30" stroke="white" stroke-width="4" stroke-linecap="round" stroke-linejoin="round"/>
</svg>

<svg width="48" height="48" fill="none" xmlns="http://www.w3.org/2000/svg"><path d="M23.266 6.008c7.734.451 7.955 8.363 7.019 11.615 9.358-2.974 12.945 1.24 13.57 3.717 1.122 5.947-4.524 7.744-7.487 7.899 5.989 7.433 3.12 11.15.936 12.08-6.738 1.858-10.606-2.943-11.698-5.576-2.995 6.319-8.11 6.66-10.294 6.04-6.364-1.858-3.587-8.518-1.404-11.615-8.984-1.487-10.294-5.885-9.826-7.898 1.497-7.434 9.358-6.195 13.101-4.647-1.497-9.664 3.432-11.77 6.083-11.615Z" fill="#2F88FF" stroke="#000" stroke-width="4" stroke-linecap="round" stroke-linejoin="round"/><path d="m25 26-4 5M19 25l6 1M24 19l1 7M31 24l-6 2M25 26l5 4" stroke="#fff" stroke-width="4" stroke-linecap="round" stroke-linejoin="round"/></svg>
